X:1
T:Ever Will I Pray
T:Ever Will I Pray
T:John Harrison Tenney
T:Annie Cummings, 1877
T:Public Domain Courtesy of the Cyber Hymnal™
C:John Harrison Tenney
Z:Public Domain
Z:Courtesy of the Cyber Hymnal™
%%score ( 1 2 ) 3
L:1/8
Q:1/4=100
M:3/4
K:Bb
V:1 treble 
V:2 treble 
V:3 bass 
V:1
 [Fd]3 [Fd] [Ec][DB] | [EG]2 [DF]2 [DB]>[DB] | [Fc]4 F2 | [Fd]6 | [Fd]3 [Fd] [Ec][DB] | %5
w: 1.~Fa- ther, in the|morn- ing Un- to|Thee I’ll|pray;|Let Thy lov- ing|
w: 2.~At the bu- sy|noon- tide, Pressed with|work and|care,|Then I’ll wait with|
w: 3.~When the ev- ening|sha- dows Chase a-|way the|light,|Fa- ther, then I’ll|
w: 4.~Thus in life’s glad|morn- ing, In its|bright noon-|day,|In its sha- dowy|
 [EG]2 [DF]2 [DB]>[Ec] | [Fd]4 [Ec]2 | [DB]4 ||"^Refrain" [Fd]>[Fd] | [Ec]4 [DB]>[EG] | %10
w: kind- ness Keep me|thro’ this|day.|||
w: Je- sus Till He|hear my|prayer.|I will|pray, I will|
w: pray Thee Bless Thy|child to-|night.|||
w: ev- ening, Ev- er|will I|pray.|||
 [DF]4 [Fd]>[Fd] | c4 [_EG]2 | [FA]6 | [DB]3 [Fd] [Ec][DB] | [EG]2 [DF]2 [DB]>[Ec] | [Fd]4 [Ec]2 | %16
w: ||||||
w: pray, Ev- er|will I|pray;|Morn- ing, noon, and|ev- ening, Un- to|Thee I’ll|
w: ||||||
w: ||||||
 [DB]6 |] %17
w: |
w: pray.|
w: |
w: |
V:2
 x6 | x6 | x4 F2 | x6 | x6 | x6 | x6 | x4 || x2 | x6 | x6 | (F2 =E2) x2 | x6 | x6 | x6 | x6 | x6 |] %17
V:3
 [B,,B,]3 [B,,B,] [B,,F,][B,,F,] | [B,,B,]2 [B,,B,]2 z2 | [F,A,][F,A,] [F,A,]2 [A,,C]2 | [B,,B,]6 | %4
w: ||||
 [B,,B,]3 [B,,B,] [B,,F,][B,,F,] | [B,,B,]2 [B,,B,]2 z2 | [B,,B,][D,B,] [F,B,]2 [F,A,]2 | %7
w: |||
 [B,,B,]4 || z2 | [F,A,][F,A,] [F,A,]2 z2 | [B,,B,][B,,B,] [B,,B,]2 z2 | %11
w: ||I will pray,|I will pray,|
 [C,A,][C,A,] [C,A,]2 [C,C]2 | [F,C]6 | [B,,B,]3 [B,,B,] [B,,F,][B,,F,] | [B,,B,]2 [B,,B,]2 z2 | %15
w: Ev- er will I|pray;|||
 [B,,B,][D,B,] [F,B,]2 [F,A,]2 | [B,,B,]6 |] %17
w: ||

